assets/icons/24px/outline/full-screen-arrow-24px.svg

<svg width="24" height="24" fill="none" xmlns="http://www.w3.org/2000/svg"><path d="M9 15l-6 6m0 0v-5m0 5h5m7-12l6-6m0 0v5m0-5h-5" stroke="#fff" stroke-width="2" stroke-linecap="round" stroke-linejoin="round"/></svg>

<svg width="24" height="24" viewBox="0 0 24 24" fill="none" xmlns="http://www.w3.org/2000/svg">
<path d="M9 15.0001L3 21M3 21L3 16M3 21L8 21M15 9.00007L21 3M21 3L21 8M21 3L16 3" stroke="white" stroke-width="2" stroke-linecap="round" stroke-linejoin="round"/>
</svg>
